Numix-Circle/48x48/apps/openra-editor.svg

<?xml version="1.0" encoding="UTF-8" standalone="no"?>
<svg
   xmlns:dc="http://purl.org/dc/elements/1.1/"
   xmlns:cc="http://creativecommons.org/ns#"
   xmlns:rdf="http://www.w3.org/1999/02/22-rdf-syntax-ns#"
   xmlns:svg="http://www.w3.org/2000/svg"
   xmlns="http://www.w3.org/2000/svg"
   xmlns:xlink="http://www.w3.org/1999/xlink"
   xmlns:sodipodi="http://sodipodi.sourceforge.net/DTD/sodipodi-0.dtd"
   xmlns:inkscape="http://www.inkscape.org/namespaces/inkscape"
   viewBox="0 0 48 48"
   id="svg3001"
   version="1.1"
   inkscape:version="0.48.5 r10040"
   width="100%"
   height="100%"
   sodipodi:docname="openra-editor.svg">
  <metadata
     id="metadata3087">
    <rdf:RDF>
      <cc:Work
         rdf:about="">
        <dc:format>image/svg+xml</dc:format>
        <dc:type
           rdf:resource="http://purl.org/dc/dcmitype/StillImage" />
      </cc:Work>
    </rdf:RDF>
  </metadata>
  <sodipodi:namedview
     pagecolor="#ffffff"
     bordercolor="#666666"
     borderopacity="1"
     objecttolerance="10"
     gridtolerance="10"
     guidetolerance="10"
     inkscape:pageopacity="0"
     inkscape:pageshadow="2"
     inkscape:window-width="1280"
     inkscape:window-height="998"
     id="namedview3085"
     showgrid="true"
     inkscape:zoom="4"
     inkscape:cx="-31.924388"
     inkscape:cy="-18.088766"
     inkscape:window-x="0"
     inkscape:window-y="0"
     inkscape:window-maximized="1"
     inkscape:current-layer="svg3001">
    <inkscape:grid
       type="xygrid"
       id="grid3123" />
  </sodipodi:namedview>
  <defs
     id="defs3003">
    <linearGradient
       id="linearGradient4232">
      <stop
         style="stop-color:#788091;stop-opacity:1;"
         offset="0"
         id="stop4234" />
      <stop
         style="stop-color:#828a9a;stop-opacity:1;"
         offset="1"
         id="stop4236" />
    </linearGradient>
    <linearGradient
       id="linearGradient3764"
       x1="1"
       x2="47"
       gradientUnits="userSpaceOnUse"
       gradientTransform="matrix(0,-1,1,0,-1.5e-6,47.999998)">
      <stop
         stop-color="#a467af"
         stop-opacity="1"
         id="stop3006" />
      <stop
         offset="1"
         stop-color="#ac74b6"
         stop-opacity="1"
         id="stop3008" />
    </linearGradient>
    <clipPath
       id="clipPath-623478523">
      <g
         transform="translate(0,-1004.3622)"
         id="g3011">
        <path
           d="m -24 13 c 0 1.105 -0.672 2 -1.5 2 -0.828 0 -1.5 -0.895 -1.5 -2 0 -1.105 0.672 -2 1.5 -2 0.828 0 1.5 0.895 1.5 2 z"
           transform="matrix(15.333333,0,0,11.5,414.99999,878.8622)"
           fill="#1890d0"
           id="path3013" />
      </g>
    </clipPath>
    <clipPath
       id="clipPath-633014263">
      <g
         transform="translate(0,-1004.3622)"
         id="g3016">
        <path
           d="m -24 13 c 0 1.105 -0.672 2 -1.5 2 -0.828 0 -1.5 -0.895 -1.5 -2 0 -1.105 0.672 -2 1.5 -2 0.828 0 1.5 0.895 1.5 2 z"
           transform="matrix(15.333333,0,0,11.5,414.99999,878.8622)"
           fill="#1890d0"
           id="path3018" />
      </g>
    </clipPath>
    <linearGradient
       id="linearGradient3764-9"
       x1="1"
       x2="47"
       gradientUnits="userSpaceOnUse"
       gradientTransform="matrix(0,-1,1,0,-1.5e-6,47.999998)">
      <stop
         stop-color="#ca251c"
         stop-opacity="1"
         id="stop7" />
      <stop
         offset="1"
         stop-color="#db281f"
         stop-opacity="1"
         id="stop9" />
    </linearGradient>
    <linearGradient
       x2="47"
       x1="1"
       gradientTransform="matrix(0,-1,1,0,-1.5e-6,47.999998)"
       gradientUnits="userSpaceOnUse"
       id="linearGradient3180"
       xlink:href="#linearGradient3764-9"
       inkscape:collect="always" />
    <clipPath
       id="clipPath-623478523-4">
      <g
         transform="translate(0,-1004.3622)"
         id="g3011-8">
        <path
           style="fill:#1890d0"
           inkscape:connector-curvature="0"
           d="m -24,13 c 0,1.105 -0.672,2 -1.5,2 -0.828,0 -1.5,-0.895 -1.5,-2 0,-1.105 0.672,-2 1.5,-2 0.828,0 1.5,0.895 1.5,2 z"
           transform="matrix(15.333333,0,0,11.5,414.99999,878.8622)"
           id="path3013-6" />
      </g>
    </clipPath>
    <linearGradient
       inkscape:collect="always"
       xlink:href="#linearGradient4232"
       id="linearGradient4238"
       x1="1"
       y1="24"
       x2="47"
       y2="24"
       gradientUnits="userSpaceOnUse"
       gradientTransform="matrix(0,-1,1,0,0,48)" />
  </defs>
  <g
     id="g3020">
    <path
       d="m 36.31 5 c 5.859 4.062 9.688 10.831 9.688 18.5 c 0 12.426 -10.07 22.5 -22.5 22.5 c -7.669 0 -14.438 -3.828 -18.5 -9.688 c 1.037 1.822 2.306 3.499 3.781 4.969 c 4.085 3.712 9.514 5.969 15.469 5.969 c 12.703 0 23 -10.298 23 -23 c 0 -5.954 -2.256 -11.384 -5.969 -15.469 c -1.469 -1.475 -3.147 -2.744 -4.969 -3.781 z m 4.969 3.781 c 3.854 4.113 6.219 9.637 6.219 15.719 c 0 12.703 -10.297 23 -23 23 c -6.081 0 -11.606 -2.364 -15.719 -6.219 c 4.16 4.144 9.883 6.719 16.219 6.719 c 12.703 0 23 -10.298 23 -23 c 0 -6.335 -2.575 -12.06 -6.719 -16.219 z"
       opacity="0.05"
       id="path3022" />
    <path
       d="m 41.28 8.781 c 3.712 4.085 5.969 9.514 5.969 15.469 c 0 12.703 -10.297 23 -23 23 c -5.954 0 -11.384 -2.256 -15.469 -5.969 c 4.113 3.854 9.637 6.219 15.719 6.219 c 12.703 0 23 -10.298 23 -23 c 0 -6.081 -2.364 -11.606 -6.219 -15.719 z"
       opacity="0.1"
       id="path3024" />
    <path
       d="m 31.25 2.375 c 8.615 3.154 14.75 11.417 14.75 21.13 c 0 12.426 -10.07 22.5 -22.5 22.5 c -9.708 0 -17.971 -6.135 -21.12 -14.75 a 23 23 0 0 0 44.875 -7 a 23 23 0 0 0 -16 -21.875 z"
       opacity="0.2"
       id="path3026" />
  </g>
  <path
     inkscape:connector-curvature="0"
     style="fill:url(#linearGradient4238);fill-opacity:1"
     id="path3030"
     d="M 1,24 C 1,11.297 11.297,1 24,1 36.703,1 47,11.297 47,24 47,36.703 36.703,47 24,47 11.297,47 1,36.703 1,24 z" />
  <g
     id="g3032" />
  <path
     style="opacity:0.1;fill:#000000;fill-opacity:1;fill-rule:nonzero;stroke:none"
     d="M 15.875 12 C 15.383 12 15 12.383 15 12.875 L 15 37.125 C 15 37.617 15.383 38 15.875 38 L 34.125 38 C 34.617 38 35 37.617 35 37.125 L 35 17 L 30 12 L 15.875 12 z M 23.90625 19 C 26.400033 19.585546 31.746427 22.403524 32 27.5625 C 31.832222 28.72288 31.656172 29.876929 30.84375 31 L 31.9375 32.125 L 29.90625 34 L 28.96875 33.15625 C 27.843074 33.47988 27.326922 34.062043 25.34375 34 C 24.408757 33.96734 22.401244 33.652845 20.875 31.59375 C 20.35671 32.420286 19.73785 33.135234 19 33.71875 C 18.526214 33.988582 18.032848 34.219466 17.34375 33.5625 C 16.774735 32.88975 16.981447 32.248178 17.5625 31.65625 C 18.269211 30.996209 18.912458 30.72868 19.59375 30.34375 L 19.59375 29.84375 C 19.63266 29.74369 19.695866 29.648362 20.03125 29.46875 L 20.875 29.4375 C 21.057425 29.197026 21.201758 29.033837 21.46875 29.0625 C 21.942385 29.10324 23.164629 31.170314 25 31.15625 C 25.736489 31.0794 26.28097 31.011694 26.8125 30.65625 L 23.09375 26.6875 C 22.582298 27.139541 22.113007 27.655049 21.53125 27.96875 C 20.75415 27.375434 20.021205 26.703452 19.4375 25.84375 L 23 22.71875 L 25.96875 22.53125 L 26.5625 23.125 C 26.034067 23.739472 25.497183 24.312522 24.96875 24.8125 L 28.71875 28.75 C 29.117137 28.460263 29.217021 27.558953 29.21875 26.71875 C 29.096659 23.92947 26.007745 21.286647 23.90625 19 z "
     id="path3044" />
  <path
     style="opacity:0.1;fill:#000000;fill-opacity:1;fill-rule:nonzero;stroke:none"
     inkscape:connector-curvature="0"
     id="path3050"
     d="m 17,22 8,0 0,-2 -8,0 m 0,2" />
  <path
     style="opacity:0.1;fill:#000000;fill-opacity:1;fill-rule:nonzero;stroke:none"
     inkscape:connector-curvature="0"
     id="path3052"
     d="m 17,18 11,0 0,-2 -11,0 m 0,2" />
  <path
     style="opacity:0.1;fill:#000000;fill-opacity:1;fill-rule:nonzero;stroke:none"
     inkscape:connector-curvature="0"
     id="path3054"
     d="m 17,35 16,0 0,-2 -16,0 m 0,2" />
  <path
     style="fill:#dabd76;fill-opacity:1;fill-rule:nonzero;stroke:none"
     d="M 14.875 11 C 14.383 11 14 11.383 14 11.875 L 14 36.125 C 14 36.617 14.383 37 14.875 37 L 33.125 37 C 33.617 37 34 36.617 34 36.125 L 34 16 L 29 11 L 14.875 11 z M 22.90625 18 C 25.400033 18.585546 30.746427 21.403524 31 26.5625 C 30.832222 27.72288 30.656172 28.876929 29.84375 30 L 30.9375 31.125 L 28.90625 33 L 27.96875 32.15625 C 26.843074 32.47988 26.326922 33.062043 24.34375 33 C 23.408757 32.96734 21.401244 32.652845 19.875 30.59375 C 19.35671 31.420286 18.73785 32.135234 18 32.71875 C 17.526214 32.988582 17.032848 33.219466 16.34375 32.5625 C 15.774735 31.88975 15.981447 31.248178 16.5625 30.65625 C 17.269211 29.996209 17.912458 29.72868 18.59375 29.34375 L 18.59375 28.84375 C 18.63266 28.74369 18.695866 28.648362 19.03125 28.46875 L 19.875 28.4375 C 20.057425 28.197026 20.201758 28.033837 20.46875 28.0625 C 20.942385 28.10324 22.164629 30.170314 24 30.15625 C 24.736489 30.0794 25.28097 30.011694 25.8125 29.65625 L 22.09375 25.6875 C 21.582298 26.139541 21.113007 26.655049 20.53125 26.96875 C 19.75415 26.375434 19.021205 25.703452 18.4375 24.84375 L 22 21.71875 L 24.96875 21.53125 L 25.5625 22.125 C 25.034067 22.739472 24.497183 23.312522 23.96875 23.8125 L 27.71875 27.75 C 28.117137 27.460263 28.217021 26.558953 28.21875 25.71875 C 28.096659 22.92947 25.007745 20.286647 22.90625 18 z "
     id="path3066" />
  <path
     style="fill:#dabd76;fill-opacity:1;fill-rule:nonzero;stroke:none"
     inkscape:connector-curvature="0"
     id="path3078"
     d="m 29,11 0,5 5,0 m -5,-5" />
  <path
     style="fill:#000000;fill-opacity:0.2;fill-rule:nonzero;stroke:none"
     inkscape:connector-curvature="0"
     id="SVGCleanerId_0"
     d="m 34,21 0,-5 -5,0 m 5,5" />
  <g
     id="g3081">
    <path
       d="m 40.03 7.531 c 3.712 4.084 5.969 9.514 5.969 15.469 0 12.703 -10.297 23 -23 23 c -5.954 0 -11.384 -2.256 -15.469 -5.969 4.178 4.291 10.01 6.969 16.469 6.969 c 12.703 0 23 -10.298 23 -23 0 -6.462 -2.677 -12.291 -6.969 -16.469 z"
       opacity="0.1"
       id="path3083" />
  </g>
</svg>

<svg xmlns="http://www.w3.org/2000/svg" viewBox="0 0 48 48">
 <defs>
  <linearGradient id="linearGradient4238" x1="1" x2="47" gradientUnits="userSpaceOnUse" gradientTransform="matrix(0,-1,1,0,0,48)">
   <stop style="stop-color:#788091;stop-opacity:1"/>
   <stop offset="1" style="stop-color:#828a9a;stop-opacity:1"/>
  </linearGradient>
 </defs>
 <g>
  <path d="m 36.31 5 c 5.859 4.062 9.688 10.831 9.688 18.5 c 0 12.426 -10.07 22.5 -22.5 22.5 c -7.669 0 -14.438 -3.828 -18.5 -9.688 c 1.037 1.822 2.306 3.499 3.781 4.969 c 4.085 3.712 9.514 5.969 15.469 5.969 c 12.703 0 23 -10.298 23 -23 c 0 -5.954 -2.256 -11.384 -5.969 -15.469 c -1.469 -1.475 -3.147 -2.744 -4.969 -3.781 z m 4.969 3.781 c 3.854 4.113 6.219 9.637 6.219 15.719 c 0 12.703 -10.297 23 -23 23 c -6.081 0 -11.606 -2.364 -15.719 -6.219 c 4.16 4.144 9.883 6.719 16.219 6.719 c 12.703 0 23 -10.298 23 -23 c 0 -6.335 -2.575 -12.06 -6.719 -16.219 z" style="opacity:0.05"/>
  <path d="m 41.28 8.781 c 3.712 4.085 5.969 9.514 5.969 15.469 c 0 12.703 -10.297 23 -23 23 c -5.954 0 -11.384 -2.256 -15.469 -5.969 c 4.113 3.854 9.637 6.219 15.719 6.219 c 12.703 0 23 -10.298 23 -23 c 0 -6.081 -2.364 -11.606 -6.219 -15.719 z" style="opacity:0.1"/>
  <path d="m 31.25 2.375 c 8.615 3.154 14.75 11.417 14.75 21.13 c 0 12.426 -10.07 22.5 -22.5 22.5 c -9.708 0 -17.971 -6.135 -21.12 -14.75 a 23 23 0 0 0 44.875 -7 a 23 23 0 0 0 -16 -21.875 z" style="opacity:0.2"/>
 </g>
 <path d="M 1,24 C 1,11.297 11.297,1 24,1 36.703,1 47,11.297 47,24 47,36.703 36.703,47 24,47 11.297,47 1,36.703 1,24 z" style="fill:url(#linearGradient4238);fill-opacity:1"/>
 <path d="m 15.875 12 c -0.492 0 -0.875 0.383 -0.875 0.875 l 0 24.25 c 0 0.492 0.383 0.875 0.875 0.875 l 18.25 0 c 0.492 0 0.875 -0.383 0.875 -0.875 l 0 -20.12 l -5 -5 l -14.12 0 z m 8.03 7 c 2.494 0.586 7.84 3.404 8.094 8.563 c -0.168 1.16 -0.344 2.314 -1.156 3.438 l 1.094 1.125 l -2.031 1.875 l -0.938 -0.844 c -1.126 0.324 -1.642 0.906 -3.625 0.844 c -0.935 -0.033 -2.943 -0.347 -4.469 -2.406 c -0.518 0.827 -1.137 1.541 -1.875 2.125 c -0.474 0.27 -0.967 0.501 -1.656 -0.156 c -0.569 -0.673 -0.362 -1.314 0.219 -1.906 c 0.707 -0.66 1.35 -0.928 2.031 -1.313 l 0 -0.5 c 0.039 -0.1 0.102 -0.195 0.438 -0.375 l 0.844 -0.031 c 0.182 -0.24 0.327 -0.404 0.594 -0.375 c 0.474 0.041 1.696 2.108 3.531 2.094 c 0.736 -0.077 1.281 -0.145 1.813 -0.5 l -3.719 -3.969 c -0.511 0.452 -0.981 0.968 -1.563 1.281 c -0.777 -0.593 -1.51 -1.265 -2.094 -2.125 l 3.563 -3.125 l 2.969 -0.188 l 0.594 0.594 c -0.528 0.614 -1.065 1.188 -1.594 1.688 l 3.75 3.938 c 0.398 -0.29 0.498 -1.191 0.5 -2.031 c -0.122 -2.789 -3.211 -5.432 -5.313 -7.719 z" style="fill:#000;opacity:0.1;fill-opacity:1;stroke:none;fill-rule:nonzero"/>
 <path d="m 17 22 8 0 0 -2 -8 0 m 0 2" style="fill:#000;opacity:0.1;fill-opacity:1;stroke:none;fill-rule:nonzero"/>
 <path d="m 17 18 11 0 0 -2 -11 0 m 0 2" style="fill:#000;opacity:0.1;fill-opacity:1;stroke:none;fill-rule:nonzero"/>
 <path d="m 17 35 16 0 0 -2 -16 0 m 0 2" style="fill:#000;opacity:0.1;fill-opacity:1;stroke:none;fill-rule:nonzero"/>
 <path d="m 14.875 11 c -0.492 0 -0.875 0.383 -0.875 0.875 l 0 24.25 c 0 0.492 0.383 0.875 0.875 0.875 l 18.25 0 c 0.492 0 0.875 -0.383 0.875 -0.875 l 0 -20.12 l -5 -5 l -14.12 0 z m 8.03 7 c 2.494 0.586 7.84 3.404 8.094 8.563 c -0.168 1.16 -0.344 2.314 -1.156 3.438 l 1.094 1.125 l -2.031 1.875 l -0.938 -0.844 c -1.126 0.324 -1.642 0.906 -3.625 0.844 c -0.935 -0.033 -2.943 -0.347 -4.469 -2.406 c -0.518 0.827 -1.137 1.541 -1.875 2.125 c -0.474 0.27 -0.967 0.501 -1.656 -0.156 c -0.569 -0.673 -0.362 -1.314 0.219 -1.906 c 0.707 -0.66 1.35 -0.928 2.031 -1.313 l 0 -0.5 c 0.039 -0.1 0.102 -0.195 0.438 -0.375 l 0.844 -0.031 c 0.182 -0.24 0.327 -0.404 0.594 -0.375 c 0.474 0.041 1.696 2.108 3.531 2.094 c 0.736 -0.077 1.281 -0.145 1.813 -0.5 l -3.719 -3.969 c -0.511 0.452 -0.981 0.968 -1.563 1.281 c -0.777 -0.593 -1.51 -1.265 -2.094 -2.125 l 3.563 -3.125 l 2.969 -0.188 l 0.594 0.594 c -0.528 0.614 -1.065 1.188 -1.594 1.688 l 3.75 3.938 c 0.398 -0.29 0.498 -1.191 0.5 -2.031 c -0.122 -2.789 -3.211 -5.432 -5.313 -7.719 z" style="fill:#dabd76;fill-opacity:1;stroke:none;fill-rule:nonzero"/>
 <path d="m 29 11 0 5 5 0 m -5 -5" style="fill:#dabd76;fill-opacity:1;stroke:none;fill-rule:nonzero"/>
 <path d="m 34 21 0 -5 -5 0 m 5 5" style="fill:#000;fill-opacity:0.2;stroke:none;fill-rule:nonzero"/>
 <g>
  <path d="m 40.03 7.531 c 3.712 4.084 5.969 9.514 5.969 15.469 0 12.703 -10.297 23 -23 23 c -5.954 0 -11.384 -2.256 -15.469 -5.969 4.178 4.291 10.01 6.969 16.469 6.969 c 12.703 0 23 -10.298 23 -23 0 -6.462 -2.677 -12.291 -6.969 -16.469 z" style="opacity:0.1"/>
 </g>
</svg>
